X: 4
%%measurenb 0
%%scale 0.7
T:Susanna fair
T:Bass recorder
C:William Byrd
M:C|
L:1/4
K:Fmaj clef=bass
z2 c2 f3 f | f2 f2 d2 c2 | B2 F f2 e f d |
c2 B2 A2 z2 | d2 f e2 d2 g|c4 z2 z A |
c G B2 A2 G2 | F f2 e d g2 f-|f e f2 z f e c|
d e f2 z e f d | c2 g2 d>e f2 | c2 z G d2 B2 |
A4 G2 z g | g c g2 g e2 f | c2 z a g>f e d |
g2 G2 c4 | z d d d f>e d2 | c2 z2 z f e2 |
d2 c4 z2 | B2 A2 G4 | HF8 |]
z8 | z2 c2 f>e d2 | z c d/2e/2 f2 e f2|
z2 z f e2 d2 | c2 z d f F A/2B/2 c-|c =B c2 z d f c |
e>f d2 z c c A | c G c d g2 z c | d2 B2 A2 z F|
c2 z c f2 e2 | d2 c c2 =B e c | G8|
z g e>f g a g2-|g c g3 c c2 | z A c2 B Ac G |
B3 c2 =B c2 | G g2 f e2 f e-|e/2c/2 d c4 z2 |
z F c2 B A2 G | F2 z c d e f d | e2 f2 B2 c2 | HF8 |]

